src/assets/images/eyes/20.svg

<svg width="32" height="32" viewBox="0 0 32 32" fill="none" xmlns="http://www.w3.org/2000/svg">
<path d="M25.5 18L19 12.5L25 11L25.5 18Z" fill="url(#paint0_linear_939_1523)"/>
<path d="M13.5 14.5L7 14L11.5 10L13.5 14.5Z" fill="url(#paint1_linear_939_1523)"/>
<path d="M16.5 6H18.5C20.1 7.6 19.8333 10.6667 19.5 12L16.5 13L18 9.5L16.5 6Z" fill="url(#paint2_radial_939_1523)"/>
<path d="M3 8H5C6.6 9.6 6.33333 12.6667 6 14L3 16L4.5 11.5L3 8Z" fill="url(#paint3_radial_939_1523)"/>
<path d="M8.62398 12.8646L5.57387 15.2369C5.4703 15.3175 5.32052 15.2356 5.3324 15.105L5.63107 11.8196C5.7117 10.9326 5.26156 10.0815 4.48301 9.64901L2.5004 8.54757C2.13219 8.343 2.16643 7.80269 2.55753 7.64625L5.08694 6.63448C5.79291 6.3521 6.3085 5.73226 6.45762 4.98667L6.92933 2.6281C7.00901 2.22972 7.52245 2.11326 7.7662 2.43827L9.13038 4.25717C9.59861 4.88148 10.3569 5.21859 11.1341 5.14793L14.6266 4.83044C14.756 4.81867 14.8381 4.96585 14.7601 5.06982L12.9744 7.45081C12.5033 8.079 12.3937 8.90737 12.6853 9.63644L14.0965 13.1643L10.4466 12.4344C9.80541 12.3061 9.14014 12.4632 8.62398 12.8646Z" fill="url(#paint4_linear_939_1523)" stroke="url(#paint5_linear_939_1523)" stroke-width="0.5"/>
<path d="M23.376 12.8646L26.4261 15.2369C26.5297 15.3175 26.6795 15.2356 26.6676 15.105L26.3689 11.8196C26.2883 10.9326 26.7384 10.0815 27.517 9.64901L29.4996 8.54757C29.8678 8.343 29.8336 7.80269 29.4425 7.64625L26.9131 6.63448C26.2071 6.3521 25.6915 5.73226 25.5424 4.98667L25.0707 2.6281C24.991 2.22972 24.4776 2.11326 24.2338 2.43827L22.8696 4.25717C22.4014 4.88148 21.6431 5.21859 20.8659 5.14793L17.3734 4.83044C17.244 4.81867 17.1619 4.96585 17.2399 5.06982L19.0256 7.45081C19.4967 8.079 19.6063 8.90737 19.3147 9.63644L17.9035 13.1643L21.5534 12.4344C22.1946 12.3061 22.8599 12.4632 23.376 12.8646Z" fill="url(#paint6_linear_939_1523)" stroke="url(#paint7_linear_939_1523)" stroke-width="0.5"/>
<defs>
<linearGradient id="paint0_linear_939_1523" x1="23.5" y1="11.5" x2="21.8141" y2="14.6672" gradientUnits="userSpaceOnUse">
<stop stop-color="#EC812A"/>
<stop offset="1" stop-color="#FBA84C" stop-opacity="0"/>
</linearGradient>
<linearGradient id="paint1_linear_939_1523" x1="10.5" y1="11.5" x2="10.2504" y2="14.0248" gradientUnits="userSpaceOnUse">
<stop stop-color="#C85F27"/>
<stop offset="1" stop-color="#C85F27" stop-opacity="0"/>
</linearGradient>
<radialGradient id="paint2_radial_939_1523" cx="0" cy="0" r="1" gradientUnits="userSpaceOnUse" gradientTransform="translate(20.5 11) rotate(158.199) scale(5.38516)">
<stop stop-color="#EC812A"/>
<stop offset="1" stop-color="#FBA84C" stop-opacity="0"/>
</radialGradient>
<radialGradient id="paint3_radial_939_1523" cx="0" cy="0" r="1" gradientUnits="userSpaceOnUse" gradientTransform="translate(7 13) rotate(158.199) scale(5.38516)">
<stop stop-color="#CC7521"/>
<stop offset="1" stop-color="#E6872B" stop-opacity="0"/>
</radialGradient>
<linearGradient id="paint4_linear_939_1523" x1="7.5" y1="1" x2="10" y2="15" gradientUnits="userSpaceOnUse">
<stop stop-color="#7912B2"/>
<stop offset="1" stop-color="#CF1DA1"/>
</linearGradient>
<linearGradient id="paint5_linear_939_1523" x1="15" y1="6" x2="8.5" y2="8.5" gradientUnits="userSpaceOnUse">
<stop stop-color="#BF33B1"/>
<stop offset="1" stop-color="#BF33B1" stop-opacity="0"/>
</linearGradient>
<linearGradient id="paint6_linear_939_1523" x1="22" y1="2.5" x2="22.5" y2="14.5" gradientUnits="userSpaceOnUse">
<stop stop-color="#7912B2"/>
<stop offset="1" stop-color="#CF1DA1"/>
</linearGradient>
<linearGradient id="paint7_linear_939_1523" x1="29.5" y1="6" x2="23.5" y2="6.5" gradientUnits="userSpaceOnUse">
<stop stop-color="#B51AA6"/>
<stop offset="1" stop-color="#BF33B1" stop-opacity="0"/>
</linearGradient>
</defs>
</svg>

<svg width="32" height="32" fill="none" xmlns="http://www.w3.org/2000/svg"><path d="M25.5 18 19 12.5l6-1.5.5 7z" fill="url(#a)"/><path d="M13.5 14.5 7 14l4.5-4 2 4.5z" fill="url(#b)"/><path d="M16.5 6h2c1.6 1.6 1.333 4.667 1 6l-3 1L18 9.5 16.5 6z" fill="url(#c)"/><path d="M3 8h2c1.6 1.6 1.333 4.667 1 6l-3 2 1.5-4.5L3 8z" fill="url(#d)"/><path d="m8.624 12.865-3.05 2.372a.15.15 0 0 1-.242-.132l.3-3.285a2.25 2.25 0 0 0-1.149-2.171L2.5 8.548a.5.5 0 0 1 .058-.902l2.529-1.012a2.25 2.25 0 0 0 1.37-1.647l.472-2.359a.47.47 0 0 1 .837-.19l1.364 1.82a2.25 2.25 0 0 0 2.004.89l3.493-.318a.15.15 0 0 1 .133.24l-1.786 2.38a2.25 2.25 0 0 0-.289 2.186l1.412 3.528-3.65-.73a2.25 2.25 0 0 0-1.823.43z" fill="url(#e)" stroke="url(#f)" stroke-width=".5"/><path d="m23.376 12.865 3.05 2.372a.15.15 0 0 0 .242-.132l-.3-3.285a2.25 2.25 0 0 1 1.149-2.171L29.5 8.548a.5.5 0 0 0-.058-.902l-2.529-1.012a2.25 2.25 0 0 1-1.37-1.647l-.472-2.359a.47.47 0 0 0-.837-.19l-1.364 1.82a2.25 2.25 0 0 1-2.004.89l-3.493-.318a.15.15 0 0 0-.133.24l1.786 2.38a2.25 2.25 0 0 1 .289 2.186l-1.412 3.528 3.65-.73a2.25 2.25 0 0 1 1.823.43z" fill="url(#g)" stroke="url(#h)" stroke-width=".5"/><defs><linearGradient id="a" x1="23.5" y1="11.5" x2="21.814" y2="14.667" gradientUnits="userSpaceOnUse"><stop stop-color="#EC812A"/><stop offset="1" stop-color="#FBA84C" stop-opacity="0"/></linearGradient><linearGradient id="b" x1="10.5" y1="11.5" x2="10.25" y2="14.025" gradientUnits="userSpaceOnUse"><stop stop-color="#C85F27"/><stop offset="1" stop-color="#C85F27" stop-opacity="0"/></linearGradient><linearGradient id="e" x1="7.5" y1="1" x2="10" y2="15" gradientUnits="userSpaceOnUse"><stop stop-color="#7912B2"/><stop offset="1" stop-color="#CF1DA1"/></linearGradient><linearGradient id="f" x1="15" y1="6" x2="8.5" y2="8.5" gradientUnits="userSpaceOnUse"><stop stop-color="#BF33B1"/><stop offset="1" stop-color="#BF33B1" stop-opacity="0"/></linearGradient><linearGradient id="g" x1="22" y1="2.5" x2="22.5" y2="14.5" gradientUnits="userSpaceOnUse"><stop stop-color="#7912B2"/><stop offset="1" stop-color="#CF1DA1"/></linearGradient><linearGradient id="h" x1="29.5" y1="6" x2="23.5" y2="6.5" gradientUnits="userSpaceOnUse"><stop stop-color="#B51AA6"/><stop offset="1" stop-color="#BF33B1" stop-opacity="0"/></linearGradient><radialGradient id="c" cx="0" cy="0" r="1" gradientUnits="userSpaceOnUse" gradientTransform="rotate(158.199 9.19 7.474) scale(5.38516)"><stop stop-color="#EC812A"/><stop offset="1" stop-color="#FBA84C" stop-opacity="0"/></radialGradient><radialGradient id="d" cx="0" cy="0" r="1" gradientUnits="userSpaceOnUse" gradientTransform="rotate(158.199 2.248 7.174) scale(5.38516)"><stop stop-color="#CC7521"/><stop offset="1" stop-color="#E6872B" stop-opacity="0"/></radialGradient></defs></svg>
